static/img/in-field/segmented-controls-primary-focus.svg

<svg fill="none" height="56" viewBox="0 0 429 56" width="429" xmlns="http://www.w3.org/2000/svg" xmlns:xlink="http://www.w3.org/1999/xlink"><clipPath id="a"><rect height="51" rx="8" width="423" x="4" y="2.5"/></clipPath><g clip-path="url(#a)"><rect fill="#0063a3" height="53" rx="6.5" width="138" x="3.5" y="1.5"/><rect fill="#0063a3" height="52" rx="6" width="137" x="4" y="2"/><path d="m52.6104 37h-3.2764v-15.7051h9.0019v2.7285h-5.7255v4.0498h5.3281v2.7178h-5.3281zm12.0664-12.0098v12.0098h-3.2764v-12.0098zm-1.6329-4.705c.487 0 .906.1145 1.2569.3437.3509.222.5263.641.5263 1.2568 0 .6088-.1754 1.0313-.5263 1.2676-.3509.2292-.7699.3438-1.2569.3438-.4941 0-.9166-.1146-1.2675-.3438-.3438-.2363-.5157-.6588-.5157-1.2676 0-.6158.1719-1.0348.5157-1.2568.3509-.2292.7734-.3437 1.2675-.3437zm12.0342 4.4794c.1647 0 .3545.0108.5694.0323.222.0143.401.0358.5371.0644l-.2471 3.0723c-.1074-.0358-.2614-.0609-.4619-.0752-.1934-.0215-.3617-.0322-.5049-.0322-.4225 0-.8343.0537-1.2353.1611-.3939.1074-.7484.2829-1.0635.5264-.3151.2363-.5658.5514-.752.9453-.179.3867-.2685.8629-.2685 1.4287v6.1123h-3.2764v-12.0098h2.4814l.4834 2.0196h.1612c.2363-.4082.5299-.7806.8808-1.1172.3581-.3438.7627-.6159 1.2139-.8164.4583-.2077.9525-.3116 1.4824-.3116zm11.916 8.669c0 .8164-.1933 1.5075-.58 2.0732-.3796.5586-.9489.9847-1.708 1.2784-.7592.2864-1.7045.4296-2.836.4296-.8379 0-1.5576-.0537-2.1592-.1611-.5944-.1074-1.1959-.2864-1.8047-.5371v-2.707c.6517.2936 1.35.5371 2.0948.7304.7519.1862 1.4108.2793 1.9765.2793.6374 0 1.0922-.0931 1.3643-.2793.2793-.1933.4189-.444.4189-.7519 0-.2005-.0572-.3796-.1718-.5371-.1075-.1647-.3438-.3474-.709-.5479-.3653-.2077-.9382-.4762-1.7188-.8056-.7519-.3151-1.3714-.6338-1.8584-.9561-.4798-.3223-.8379-.7018-1.0742-1.1387-.2292-.444-.3437-1.0062-.3437-1.6865 0-1.11.4297-1.9443 1.289-2.5029.8666-.5658 2.0231-.8487 3.4698-.8487.7447 0 1.4537.0752 2.1269.2256.6803.1504 1.3786.3903 2.0947.7198l-.9882 2.3632c-.5944-.2578-1.1566-.469-1.6866-.6337-.5228-.1648-1.0563-.2471-1.6006-.2471-.4798 0-.8414.0644-1.0849.1933s-.3653.3259-.3653.5909c0 .1933.0609.3652.1827.5156.1289.1504.3724.3187.7304.5049.3653.179.8988.4118 1.6006.6982.6804.2793 1.2712.5729 1.7725.8809.5013.3008.888.6767 1.1601 1.1279.2722.444.4082 1.0205.4082 1.7295zm7.8663 1.1709c.358 0 .7054-.0358 1.0419-.1074.3438-.0716.684-.1612 1.0206-.2686v2.4385c-.351.1575-.7878.2865-1.3106.3867-.5156.1074-1.0814.1611-1.6973.1611-.7161 0-1.3606-.1145-1.9336-.3437-.5657-.2363-1.0133-.641-1.3427-1.2139-.3223-.5801-.4834-1.3857-.4834-2.417v-5.79h-1.5684v-1.3857l1.8047-1.0957.9453-2.5352h2.0947v2.5566h3.3623v2.46h-3.3623v5.79c0 .4584.1289.8021.3868 1.0313.2649.222.6123.333 1.042.333z" fill="#fff"/><rect height="53" rx="6.5" stroke="#0063a3" width="138" x="3.5" y="1.5"/><path d="m184.902 32.6387c0 .931-.225 1.7402-.676 2.4277-.452.6875-1.11 1.2175-1.977 1.5898-.859.3724-1.905.5586-3.137.5586-.544 0-1.077-.0358-1.6-.1074-.516-.0716-1.014-.1754-1.493-.3115-.473-.1432-.924-.3187-1.354-.5264v-3.0937c.745.3294 1.518.6266 2.32.8916s1.597.3974 2.385.3974c.544 0 .981-.0716 1.311-.2148.336-.1432.58-.3402.73-.5908.151-.2507.226-.5371.226-.8594 0-.3939-.133-.7305-.398-1.0098s-.63-.5407-1.095-.7841c-.459-.2435-.978-.5049-1.558-.7842-.365-.1719-.763-.3796-1.192-.6231-.43-.2506-.838-.555-1.225-.9131-.387-.358-.705-.7913-.956-1.2998-.244-.5156-.365-1.1315-.365-1.8476 0-.9382.214-1.7402.644-2.4063.43-.666 1.042-1.1744 1.837-1.5254.802-.358 1.747-.5371 2.836-.5371.816 0 1.593.0967 2.331.2901.745.1862 1.522.4583 2.331.8164l-1.074 2.5888c-.723-.2936-1.371-.5192-1.944-.6767-.573-.1647-1.157-.2471-1.751-.2471-.416 0-.77.0681-1.064.2041-.293.1289-.515.3151-.666.5586-.15.2363-.225.5121-.225.8272 0 .3724.107.6875.322.9453.222.2506.551.4941.988.7304.444.2364.996.5121 1.654.8272.802.3796 1.486.777 2.052 1.1924.573.4082 1.013.8916 1.321 1.4502.308.5514.462 1.2389.462 2.0625zm7.791-7.8741c1.11 0 2.066.2149 2.869.6446.802.4225 1.421 1.0384 1.858 1.8476.437.8093.655 1.7976.655 2.9649v1.5898h-7.745c.036.9239.312 1.6507.827 2.1807.523.5228 1.246.7842 2.17.7842.766 0 1.468-.0788 2.106-.2364.637-.1575 1.292-.3938 1.965-.7089v2.5351c-.594.2936-1.217.5085-1.869.6445-.644.1361-1.428.2041-2.352.2041-1.203 0-2.27-.222-3.201-.666-.924-.444-1.651-1.1207-2.181-2.0302-.523-.9096-.784-2.0554-.784-3.4375 0-1.4037.236-2.571.709-3.502.48-.9381 1.146-1.64 1.998-2.1055.852-.4726 1.844-.709 2.975-.709zm.022 2.3311c-.638 0-1.167.2041-1.59.6123-.415.4082-.655 1.0492-.72 1.9229h4.598c-.007-.487-.097-.9203-.269-1.2998-.164-.3796-.415-.6804-.752-.9024-.329-.222-.752-.333-1.267-.333zm13.151 10.1191c-1.189 0-2.202-.2148-3.04-.6445-.838-.4368-1.475-1.11-1.912-2.0195s-.655-2.0733-.655-3.4912c0-1.4681.247-2.6641.741-3.5879.501-.931 1.192-1.6149 2.073-2.0518.888-.4368 1.916-.6553 3.083-.6553.831 0 1.547.0824 2.149.2471.608.1576 1.138.3473 1.59.5694l-.967 2.5351c-.516-.2077-.996-.376-1.44-.5049-.444-.136-.888-.2041-1.332-.2041-.573 0-1.049.1361-1.428.4082-.38.265-.663.666-.849 1.2032-.186.5371-.279 1.2102-.279 2.0195 0 .7949.1 1.4538.3 1.9765.201.5228.491.9131.871 1.1709.379.2507.841.376 1.385.376.681 0 1.286-.0895 1.816-.2685.53-.1862 1.045-.444 1.547-.7735v2.8037c-.502.3151-1.028.5407-1.58.6768-.544.1432-1.235.2148-2.073.2148zm17.61-6.2412c0 1.0026-.136 1.8907-.409 2.6641-.265.7734-.655 1.4287-1.171 1.9658-.508.53-1.124.931-1.847 1.2031-.716.2722-1.526.4082-2.428.4082-.845 0-1.622-.136-2.331-.4082-.702-.2721-1.314-.6731-1.837-1.2031-.515-.5371-.917-1.1924-1.203-1.9658-.279-.7734-.419-1.6615-.419-2.6641 0-1.332.236-2.4599.709-3.3838.473-.9238 1.146-1.6256 2.02-2.1054.873-.4798 1.915-.7198 3.126-.7198 1.124 0 2.119.24 2.986.7198.874.4798 1.557 1.1816 2.052 2.1054.501.9239.752 2.0518.752 3.3838zm-8.304 0c0 .7878.086 1.4502.258 1.9873s.44.9418.805 1.2139c.366.2721.842.4082 1.429.4082.58 0 1.049-.1361 1.407-.4082.366-.2721.63-.6768.795-1.2139.172-.5371.258-1.1995.258-1.9873 0-.7949-.086-1.4537-.258-1.9765-.165-.53-.429-.9274-.795-1.1924-.365-.265-.841-.3975-1.428-.3975-.867 0-1.497.2972-1.891.8916-.387.5944-.58 1.486-.58 2.6748zm18.082-6.209c1.282 0 2.313.351 3.094 1.0528.78.6946 1.171 1.8118 1.171 3.3515v7.8311h-3.277v-7.0146c0-.8594-.157-1.5075-.472-1.9444-.308-.4368-.795-.6553-1.461-.6553-1.003 0-1.687.3402-2.052 1.0205-.365.6804-.548 1.6615-.548 2.9434v5.6504h-3.276v-12.0098h2.503l.44 1.5362h.183c.257-.4154.576-.752.956-1.0098.386-.2578.812-.4476 1.278-.5693.473-.1218.96-.1827 1.461-.1827zm11.69 12.4502c-1.339 0-2.431-.5227-3.276-1.5683-.838-1.0527-1.257-2.596-1.257-4.6299 0-2.0553.426-3.6094 1.278-4.6621.853-1.0599 1.966-1.5899 3.341-1.5899.573 0 1.078.0788 1.515.2364.437.1575.813.3688 1.128.6338.322.2649.594.5621.816.8916h.108c-.043-.2292-.097-.5658-.161-1.0098-.058-.4512-.086-.9131-.086-1.3857v-3.8457h3.287v16.7148h-2.514l-.634-1.5576h-.139c-.208.3294-.469.6302-.785.9023-.308.265-.676.4763-1.106.6338-.43.1576-.935.2363-1.515.2363zm1.15-2.6103c.895 0 1.525-.265 1.89-.7949.373-.5371.57-1.3428.591-2.417v-.3545c0-1.1673-.179-2.0589-.537-2.6748-.358-.6231-1.024-.9346-1.998-.9346-.723 0-1.289.3115-1.697.9346-.408.623-.613 1.5218-.613 2.6963 0 1.1744.205 2.0589.613 2.6533.415.5944.999.8916 1.751.8916z" fill="#353a40"/><path d="m286.5 16v24" stroke="#0063a3"/><path d="m337.117 37h-3.33v-12.9336h-4.265v-2.7715h11.86v2.7715h-4.265zm9.95-16.7148v3.4052c0 .5944-.021 1.1602-.064 1.6973-.036.5371-.065.9167-.086 1.1387h.172c.258-.4154.562-.752.913-1.0098.358-.2578.752-.4476 1.182-.5693.429-.1218.891-.1827 1.385-.1827.867 0 1.622.154 2.267.462.644.3007 1.146.777 1.504 1.4287.358.6445.537 1.4824.537 2.5136v7.8311h-3.276v-7.0146c0-.8594-.158-1.5075-.473-1.9444-.315-.4368-.802-.6553-1.461-.6553s-1.178.154-1.558.462c-.379.3007-.648.7483-.805 1.3427-.158.5873-.237 1.307-.237 2.1592v5.6504h-3.276v-16.7148zm14.709 4.705v12.0098h-3.276v-12.0098zm-1.632-4.705c.487 0 .905.1145 1.256.3437.351.222.527.641.527 1.2568 0 .6088-.176 1.0313-.527 1.2676-.351.2292-.769.3438-1.256.3438-.495 0-.917-.1146-1.268-.3438-.344-.2363-.516-.6588-.516-1.2676 0-.6158.172-1.0348.516-1.2568.351-.2292.773-.3437 1.268-.3437zm12.034 4.4794c.164 0 .354.0108.569.0323.222.0143.401.0358.537.0644l-.247 3.0723c-.107-.0358-.261-.0609-.462-.0752-.193-.0215-.361-.0322-.505-.0322-.422 0-.834.0537-1.235.1611-.394.1074-.748.2829-1.064.5264-.315.2363-.565.5514-.751.9453-.18.3867-.269.8629-.269 1.4287v6.1123h-3.276v-12.0098h2.481l.483 2.0196h.162c.236-.4082.53-.7806.88-1.1172.359-.3438.763-.6159 1.214-.8164.459-.2077.953-.3116 1.483-.3116zm7.34 12.4502c-1.34 0-2.432-.5227-3.277-1.5683-.838-1.0527-1.257-2.596-1.257-4.6299 0-2.0553.426-3.6094 1.279-4.6621.852-1.0599 1.966-1.5899 3.341-1.5899.572 0 1.077.0788 1.514.2364.437.1575.813.3688 1.128.6338.322.2649.594.5621.816.8916h.108c-.043-.2292-.097-.5658-.161-1.0098-.058-.4512-.086-.9131-.086-1.3857v-3.8457h3.287v16.7148h-2.514l-.634-1.5576h-.139c-.208.3294-.469.6302-.784.9023-.308.265-.677.4763-1.107.6338-.429.1576-.934.2363-1.514.2363zm1.149-2.6103c.895 0 1.525-.265 1.891-.7949.372-.5371.569-1.3428.59-2.417v-.3545c0-1.1673-.179-2.0589-.537-2.6748-.358-.6231-1.024-.9346-1.998-.9346-.723 0-1.289.3115-1.697.9346-.408.623-.612 1.5218-.612 2.6963 0 1.1744.204 2.0589.612 2.6533.415.5944.999.8916 1.751.8916z" fill="#353a40"/></g><rect height="53" rx="9" stroke="#0063a3" stroke-width="2" width="425" x="3" y="1.5"/><path d="m2 8c0-3.31371 2.68629-6 6-6h127c3.314 0 6 2.68629 6 6v40c0 3.3137-2.686 6-6 6h-127c-3.31371 0-6-2.6863-6-6z" stroke="#019aeb" stroke-width="3"/><path d="m9 4h125c2.761 0 5 2.23858 5 5v38c0 2.7614-2.239 5-5 5h-125c-2.76142 0-5-2.2386-5-5v-38c0-2.76142 2.23858-5 5-5z" stroke="#fff" stroke-width="2"/></svg>

<svg width="429" height="56" viewBox="0 0 429 56" fill="none" xmlns="http://www.w3.org/2000/svg"><g clip-path="url(#clip0_7388_84125)"><rect x="3.5" y="1.5" width="138" height="53" rx="6.5" fill="#0063A3"/><rect x="4" y="2" width="137" height="52" rx="6" fill="#0063A3"/><path d="M52.6104 37H49.334V21.2949H58.3359V24.0234H52.6104V28.0732H57.9385V30.791H52.6104V37ZM64.6768 24.9902V37H61.4004V24.9902H64.6768ZM63.0439 20.2852C63.5309 20.2852 63.9499 20.3997 64.3008 20.6289C64.6517 20.8509 64.8271 21.2699 64.8271 21.8857C64.8271 22.4945 64.6517 22.917 64.3008 23.1533C63.9499 23.3825 63.5309 23.4971 63.0439 23.4971C62.5498 23.4971 62.1273 23.3825 61.7764 23.1533C61.4326 22.917 61.2607 22.4945 61.2607 21.8857C61.2607 21.2699 61.4326 20.8509 61.7764 20.6289C62.1273 20.3997 62.5498 20.2852 63.0439 20.2852ZM75.0781 24.7646C75.2428 24.7646 75.4326 24.7754 75.6475 24.7969C75.8695 24.8112 76.0485 24.8327 76.1846 24.8613L75.9375 27.9336C75.8301 27.8978 75.6761 27.8727 75.4756 27.8584C75.2822 27.8369 75.1139 27.8262 74.9707 27.8262C74.5482 27.8262 74.1364 27.8799 73.7354 27.9873C73.3415 28.0947 72.987 28.2702 72.6719 28.5137C72.3568 28.75 72.1061 29.0651 71.9199 29.459C71.7409 29.8457 71.6514 30.3219 71.6514 30.8877V37H68.375V24.9902H70.8564L71.3398 27.0098H71.501C71.7373 26.6016 72.0309 26.2292 72.3818 25.8926C72.7399 25.5488 73.1445 25.2767 73.5957 25.0762C74.054 24.8685 74.5482 24.7646 75.0781 24.7646ZM86.9941 33.4336C86.9941 34.25 86.8008 34.9411 86.4141 35.5068C86.0345 36.0654 85.4652 36.4915 84.7061 36.7852C83.9469 37.0716 83.0016 37.2148 81.8701 37.2148C81.0322 37.2148 80.3125 37.1611 79.7109 37.0537C79.1165 36.9463 78.515 36.7673 77.9062 36.5166V33.8096C78.5579 34.1032 79.2562 34.3467 80.001 34.54C80.7529 34.7262 81.4118 34.8193 81.9775 34.8193C82.6149 34.8193 83.0697 34.7262 83.3418 34.54C83.6211 34.3467 83.7607 34.096 83.7607 33.7881C83.7607 33.5876 83.7035 33.4085 83.5889 33.251C83.4814 33.0863 83.2451 32.9036 82.8799 32.7031C82.5146 32.4954 81.9417 32.2269 81.1611 31.8975C80.4092 31.5824 79.7897 31.2637 79.3027 30.9414C78.8229 30.6191 78.4648 30.2396 78.2285 29.8027C77.9993 29.3587 77.8848 28.7965 77.8848 28.1162C77.8848 27.0062 78.3145 26.1719 79.1738 25.6133C80.0404 25.0475 81.1969 24.7646 82.6436 24.7646C83.3883 24.7646 84.0973 24.8398 84.7705 24.9902C85.4508 25.1406 86.1491 25.3805 86.8652 25.71L85.877 28.0732C85.2826 27.8154 84.7204 27.6042 84.1904 27.4395C83.6676 27.2747 83.1341 27.1924 82.5898 27.1924C82.11 27.1924 81.7484 27.2568 81.5049 27.3857C81.2614 27.5146 81.1396 27.7116 81.1396 27.9766C81.1396 28.1699 81.2005 28.3418 81.3223 28.4922C81.4512 28.6426 81.6947 28.8109 82.0527 28.9971C82.418 29.1761 82.9515 29.4089 83.6533 29.6953C84.3337 29.9746 84.9245 30.2682 85.4258 30.5762C85.9271 30.877 86.3138 31.2529 86.5859 31.7041C86.8581 32.1481 86.9941 32.7246 86.9941 33.4336ZM94.8604 34.6045C95.2184 34.6045 95.5658 34.5687 95.9023 34.4971C96.2461 34.4255 96.5863 34.3359 96.9229 34.2285V36.667C96.5719 36.8245 96.1351 36.9535 95.6123 37.0537C95.0967 37.1611 94.5309 37.2148 93.915 37.2148C93.1989 37.2148 92.5544 37.1003 91.9814 36.8711C91.4157 36.6348 90.9681 36.2301 90.6387 35.6572C90.3164 35.0771 90.1553 34.2715 90.1553 33.2402V27.4502H88.5869V26.0645L90.3916 24.9688L91.3369 22.4336H93.4316V24.9902H96.7939V27.4502H93.4316V33.2402C93.4316 33.6986 93.5605 34.0423 93.8184 34.2715C94.0833 34.4935 94.4307 34.6045 94.8604 34.6045Z" fill="#fff"/><rect x="3.5" y="1.5" width="138" height="53" rx="6.5" stroke="#0063A3"/><path d="M184.902 32.6387C184.902 33.5697 184.677 34.3789 184.226 35.0664C183.774 35.7539 183.116 36.2839 182.249 36.6562C181.39 37.0286 180.344 37.2148 179.112 37.2148C178.568 37.2148 178.035 37.179 177.512 37.1074C176.996 37.0358 176.498 36.932 176.019 36.7959C175.546 36.6527 175.095 36.4772 174.665 36.2695V33.1758C175.41 33.5052 176.183 33.8024 176.985 34.0674C177.787 34.3324 178.582 34.4648 179.37 34.4648C179.914 34.4648 180.351 34.3932 180.681 34.25C181.017 34.1068 181.261 33.9098 181.411 33.6592C181.562 33.4085 181.637 33.1221 181.637 32.7998C181.637 32.4059 181.504 32.0693 181.239 31.79C180.974 31.5107 180.609 31.2493 180.144 31.0059C179.685 30.7624 179.166 30.501 178.586 30.2217C178.221 30.0498 177.823 29.8421 177.394 29.5986C176.964 29.348 176.556 29.0436 176.169 28.6855C175.782 28.3275 175.464 27.8942 175.213 27.3857C174.969 26.8701 174.848 26.2542 174.848 25.5381C174.848 24.5999 175.062 23.7979 175.492 23.1318C175.922 22.4658 176.534 21.9574 177.329 21.6064C178.131 21.2484 179.076 21.0693 180.165 21.0693C180.981 21.0693 181.758 21.166 182.496 21.3594C183.241 21.5456 184.018 21.8177 184.827 22.1758L183.753 24.7646C183.03 24.471 182.382 24.2454 181.809 24.0879C181.236 23.9232 180.652 23.8408 180.058 23.8408C179.642 23.8408 179.288 23.9089 178.994 24.0449C178.701 24.1738 178.479 24.36 178.328 24.6035C178.178 24.8398 178.103 25.1156 178.103 25.4307C178.103 25.8031 178.21 26.1182 178.425 26.376C178.647 26.6266 178.976 26.8701 179.413 27.1064C179.857 27.3428 180.409 27.6185 181.067 27.9336C181.869 28.3132 182.553 28.7106 183.119 29.126C183.692 29.5342 184.132 30.0176 184.44 30.5762C184.748 31.1276 184.902 31.8151 184.902 32.6387ZM192.693 24.7646C193.803 24.7646 194.759 24.9795 195.562 25.4092C196.364 25.8317 196.983 26.4476 197.42 27.2568C197.857 28.0661 198.075 29.0544 198.075 30.2217V31.8115H190.33C190.366 32.7354 190.642 33.4622 191.157 33.9922C191.68 34.515 192.403 34.7764 193.327 34.7764C194.093 34.7764 194.795 34.6976 195.433 34.54C196.07 34.3825 196.725 34.1462 197.398 33.8311V36.3662C196.804 36.6598 196.181 36.8747 195.529 37.0107C194.885 37.1468 194.101 37.2148 193.177 37.2148C191.974 37.2148 190.907 36.9928 189.976 36.5488C189.052 36.1048 188.325 35.4281 187.795 34.5186C187.272 33.609 187.011 32.4632 187.011 31.0811C187.011 29.6774 187.247 28.5101 187.72 27.5791C188.2 26.641 188.866 25.9391 189.718 25.4736C190.57 25.001 191.562 24.7646 192.693 24.7646ZM192.715 27.0957C192.077 27.0957 191.548 27.2998 191.125 27.708C190.71 28.1162 190.47 28.7572 190.405 29.6309H195.003C194.996 29.1439 194.906 28.7106 194.734 28.3311C194.57 27.9515 194.319 27.6507 193.982 27.4287C193.653 27.2067 193.23 27.0957 192.715 27.0957ZM205.866 37.2148C204.677 37.2148 203.664 37 202.826 36.5703C201.988 36.1335 201.351 35.4603 200.914 34.5508C200.477 33.6413 200.259 32.4775 200.259 31.0596C200.259 29.5915 200.506 28.3955 201 27.4717C201.501 26.5407 202.192 25.8568 203.073 25.4199C203.961 24.9831 204.989 24.7646 206.156 24.7646C206.987 24.7646 207.703 24.847 208.305 25.0117C208.913 25.1693 209.443 25.359 209.895 25.5811L208.928 28.1162C208.412 27.9085 207.932 27.7402 207.488 27.6113C207.044 27.4753 206.6 27.4072 206.156 27.4072C205.583 27.4072 205.107 27.5433 204.728 27.8154C204.348 28.0804 204.065 28.4814 203.879 29.0186C203.693 29.5557 203.6 30.2288 203.6 31.0381C203.6 31.833 203.7 32.4919 203.9 33.0146C204.101 33.5374 204.391 33.9277 204.771 34.1855C205.15 34.4362 205.612 34.5615 206.156 34.5615C206.837 34.5615 207.442 34.472 207.972 34.293C208.502 34.1068 209.017 33.849 209.519 33.5195V36.3232C209.017 36.6383 208.491 36.8639 207.939 37C207.395 37.1432 206.704 37.2148 205.866 37.2148ZM223.476 30.9736C223.476 31.9762 223.34 32.8643 223.067 33.6377C222.802 34.4111 222.412 35.0664 221.896 35.6035C221.388 36.1335 220.772 36.5345 220.049 36.8066C219.333 37.0788 218.523 37.2148 217.621 37.2148C216.776 37.2148 215.999 37.0788 215.29 36.8066C214.588 36.5345 213.976 36.1335 213.453 35.6035C212.938 35.0664 212.536 34.4111 212.25 33.6377C211.971 32.8643 211.831 31.9762 211.831 30.9736C211.831 29.6416 212.067 28.5137 212.54 27.5898C213.013 26.666 213.686 25.9642 214.56 25.4844C215.433 25.0046 216.475 24.7646 217.686 24.7646C218.81 24.7646 219.805 25.0046 220.672 25.4844C221.546 25.9642 222.229 26.666 222.724 27.5898C223.225 28.5137 223.476 29.6416 223.476 30.9736ZM215.172 30.9736C215.172 31.7614 215.258 32.4238 215.43 32.9609C215.602 33.498 215.87 33.9027 216.235 34.1748C216.601 34.4469 217.077 34.583 217.664 34.583C218.244 34.583 218.713 34.4469 219.071 34.1748C219.437 33.9027 219.701 33.498 219.866 32.9609C220.038 32.4238 220.124 31.7614 220.124 30.9736C220.124 30.1787 220.038 29.5199 219.866 28.9971C219.701 28.4671 219.437 28.0697 219.071 27.8047C218.706 27.5397 218.23 27.4072 217.643 27.4072C216.776 27.4072 216.146 27.7044 215.752 28.2988C215.365 28.8932 215.172 29.7848 215.172 30.9736ZM233.254 24.7646C234.536 24.7646 235.567 25.1156 236.348 25.8174C237.128 26.512 237.519 27.6292 237.519 29.1689V37H234.242V29.9854C234.242 29.126 234.085 28.4779 233.77 28.041C233.462 27.6042 232.975 27.3857 232.309 27.3857C231.306 27.3857 230.622 27.7259 230.257 28.4062C229.892 29.0866 229.709 30.0677 229.709 31.3496V37H226.433V24.9902H228.936L229.376 26.5264H229.559C229.816 26.111 230.135 25.7744 230.515 25.5166C230.901 25.2588 231.327 25.069 231.793 24.9473C232.266 24.8255 232.753 24.7646 233.254 24.7646ZM244.944 37.2148C243.605 37.2148 242.513 36.6921 241.668 35.6465C240.83 34.5938 240.411 33.0505 240.411 31.0166C240.411 28.9613 240.837 27.4072 241.689 26.3545C242.542 25.2946 243.655 24.7646 245.03 24.7646C245.603 24.7646 246.108 24.8434 246.545 25.001C246.982 25.1585 247.358 25.3698 247.673 25.6348C247.995 25.8997 248.267 26.1969 248.489 26.5264H248.597C248.554 26.2972 248.5 25.9606 248.436 25.5166C248.378 25.0654 248.35 24.6035 248.35 24.1309V20.2852H251.637V37H249.123L248.489 35.4424H248.35C248.142 35.7718 247.881 36.0726 247.565 36.3447C247.257 36.6097 246.889 36.821 246.459 36.9785C246.029 37.1361 245.524 37.2148 244.944 37.2148ZM246.094 34.6045C246.989 34.6045 247.619 34.3395 247.984 33.8096C248.357 33.2725 248.554 32.4668 248.575 31.3926V31.0381C248.575 29.8708 248.396 28.9792 248.038 28.3633C247.68 27.7402 247.014 27.4287 246.04 27.4287C245.317 27.4287 244.751 27.7402 244.343 28.3633C243.935 28.9863 243.73 29.8851 243.73 31.0596C243.73 32.234 243.935 33.1185 244.343 33.7129C244.758 34.3073 245.342 34.6045 246.094 34.6045Z" fill="#353A40"/><line x1="286.5" y1="16" x2="286.5" y2="40" stroke="#0063A3"/><path d="M337.117 37H333.787V24.0664H329.522V21.2949H341.382V24.0664H337.117V37ZM347.067 20.2852V23.6904C347.067 24.2848 347.046 24.8506 347.003 25.3877C346.967 25.9248 346.938 26.3044 346.917 26.5264H347.089C347.347 26.111 347.651 25.7744 348.002 25.5166C348.36 25.2588 348.754 25.069 349.184 24.9473C349.613 24.8255 350.075 24.7646 350.569 24.7646C351.436 24.7646 352.191 24.9186 352.836 25.2266C353.48 25.5273 353.982 26.0036 354.34 26.6553C354.698 27.2998 354.877 28.1377 354.877 29.1689V37H351.601V29.9854C351.601 29.126 351.443 28.4779 351.128 28.041C350.813 27.6042 350.326 27.3857 349.667 27.3857C349.008 27.3857 348.489 27.5397 348.109 27.8477C347.73 28.1484 347.461 28.596 347.304 29.1904C347.146 29.7777 347.067 30.4974 347.067 31.3496V37H343.791V20.2852H347.067ZM361.776 24.9902V37H358.5V24.9902H361.776ZM360.144 20.2852C360.631 20.2852 361.049 20.3997 361.4 20.6289C361.751 20.8509 361.927 21.2699 361.927 21.8857C361.927 22.4945 361.751 22.917 361.4 23.1533C361.049 23.3825 360.631 23.4971 360.144 23.4971C359.649 23.4971 359.227 23.3825 358.876 23.1533C358.532 22.917 358.36 22.4945 358.36 21.8857C358.36 21.2699 358.532 20.8509 358.876 20.6289C359.227 20.3997 359.649 20.2852 360.144 20.2852ZM372.178 24.7646C372.342 24.7646 372.532 24.7754 372.747 24.7969C372.969 24.8112 373.148 24.8327 373.284 24.8613L373.037 27.9336C372.93 27.8978 372.776 27.8727 372.575 27.8584C372.382 27.8369 372.214 27.8262 372.07 27.8262C371.648 27.8262 371.236 27.8799 370.835 27.9873C370.441 28.0947 370.087 28.2702 369.771 28.5137C369.456 28.75 369.206 29.0651 369.02 29.459C368.84 29.8457 368.751 30.3219 368.751 30.8877V37H365.475V24.9902H367.956L368.439 27.0098H368.601C368.837 26.6016 369.131 26.2292 369.481 25.8926C369.84 25.5488 370.244 25.2767 370.695 25.0762C371.154 24.8685 371.648 24.7646 372.178 24.7646ZM379.518 37.2148C378.178 37.2148 377.086 36.6921 376.241 35.6465C375.403 34.5938 374.984 33.0505 374.984 31.0166C374.984 28.9613 375.41 27.4072 376.263 26.3545C377.115 25.2946 378.229 24.7646 379.604 24.7646C380.176 24.7646 380.681 24.8434 381.118 25.001C381.555 25.1585 381.931 25.3698 382.246 25.6348C382.568 25.8997 382.84 26.1969 383.062 26.5264H383.17C383.127 26.2972 383.073 25.9606 383.009 25.5166C382.951 25.0654 382.923 24.6035 382.923 24.1309V20.2852H386.21V37H383.696L383.062 35.4424H382.923C382.715 35.7718 382.454 36.0726 382.139 36.3447C381.831 36.6097 381.462 36.821 381.032 36.9785C380.603 37.1361 380.098 37.2148 379.518 37.2148ZM380.667 34.6045C381.562 34.6045 382.192 34.3395 382.558 33.8096C382.93 33.2725 383.127 32.4668 383.148 31.3926V31.0381C383.148 29.8708 382.969 28.9792 382.611 28.3633C382.253 27.7402 381.587 27.4287 380.613 27.4287C379.89 27.4287 379.324 27.7402 378.916 28.3633C378.508 28.9863 378.304 29.8851 378.304 31.0596C378.304 32.234 378.508 33.1185 378.916 33.7129C379.331 34.3073 379.915 34.6045 380.667 34.6045Z" fill="#353A40"/></g><rect x="3" y="1.5" width="425" height="53" rx="9" stroke="#0063A3" stroke-width="2"/><path d="M2 8C2 4.68629 4.68629 2 8 2H135C138.314 2 141 4.68629 141 8V48C141 51.3137 138.314 54 135 54H8C4.68629 54 2 51.3137 2 48V8Z" stroke="#019AEB" stroke-width="3"/><path d="M9 4H134C136.761 4 139 6.23858 139 9V47C139 49.7614 136.761 52 134 52H9C6.23858 52 4 49.7614 4 47V9C4 6.23858 6.23858 4 9 4Z" stroke="#fff" stroke-width="2"/><defs><clipPath id="clip0_7388_84125"><rect x="4" y="2.5" width="423" height="51" rx="8" fill="#fff"/></clipPath></defs></svg>
